src/svgs/antialias.svg

<?xml version="1.0" encoding="UTF-8" standalone="no"?>
<!-- Created with Inkscape (http://www.inkscape.org/) -->

<svg
   xmlns:dc="http://purl.org/dc/elements/1.1/"
   xmlns:cc="http://creativecommons.org/ns#"
   xmlns:rdf="http://www.w3.org/1999/02/22-rdf-syntax-ns#"
   xmlns:svg="http://www.w3.org/2000/svg"
   xmlns="http://www.w3.org/2000/svg"
   xmlns:sodipodi="http://sodipodi.sourceforge.net/DTD/sodipodi-0.dtd"
   xmlns:inkscape="http://www.inkscape.org/namespaces/inkscape"
   width="20"
   height="20"
   id="svg4863"
   version="1.1"
   inkscape:version="0.48.5 r10040"
   sodipodi:docname="antialias.svg"
   inkscape:export-filename="/Users/saman/work_repos/base/latest/icons/text-vertical-center.png"
   inkscape:export-xdpi="180"
   inkscape:export-ydpi="180">
  <defs
     id="defs4865" />
  <sodipodi:namedview
     id="base"
     pagecolor="#ffffff"
     bordercolor="#666666"
     borderopacity="1.0"
     inkscape:pageopacity="0.0"
     inkscape:pageshadow="2"
     inkscape:zoom="22.627417"
     inkscape:cx="15.147532"
     inkscape:cy="5.6337945"
     inkscape:document-units="px"
     inkscape:current-layer="layer1"
     showgrid="true"
     inkscape:snap-bbox="true"
     inkscape:snap-nodes="true"
     inkscape:window-width="1608"
     inkscape:window-height="970"
     inkscape:window-x="87"
     inkscape:window-y="3"
     inkscape:window-maximized="0"
     showguides="false"
     inkscape:guide-bbox="true">
    <inkscape:grid
       type="xygrid"
       id="grid4886"
       empspacing="5"
       visible="true"
       enabled="true"
       snapvisiblegridlinesonly="true"
       spacingx="0.5px"
       spacingy="0.5px" />
    <sodipodi:guide
       orientation="0,1"
       position="22,15"
       id="guide6423" />
    <sodipodi:guide
       orientation="0,1"
       position="21,5"
       id="guide6425" />
    <sodipodi:guide
       orientation="0,1"
       position="33,95"
       id="guide7108" />
  </sodipodi:namedview>
  <metadata
     id="metadata4868">
    <rdf:RDF>
      <cc:Work
         rdf:about="">
        <dc:format>image/svg+xml</dc:format>
        <dc:type
           rdf:resource="http://purl.org/dc/dcmitype/StillImage" />
        <dc:title />
      </cc:Work>
    </rdf:RDF>
  </metadata>
  <g
     inkscape:label="Layer 1"
     inkscape:groupmode="layer"
     id="layer1"
     transform="translate(0,-1032.3622)">
    <g
       transform="matrix(1.9999805,0,0,1.7500055,-539.99976,-1081.7773)"
       id="g5863" />
    <g
       id="g7094" />
    <g
       transform="translate(-141,80)"
       id="g7149-6" />
    <path
       style="color:#000000;fill:#000000;fill-opacity:1;fill-rule:nonzero;stroke:none;stroke-width:2;marker:none;visibility:visible;display:inline;overflow:visible;enable-background:accumulate"
       d="M 10.875 2.96875 A 1.0001 1.0001 0 0 0 10.28125 4.6875 L 15.28125 9.6875 A 1.0054956 1.0054956 0 1 0 16.71875 8.28125 L 11.71875 3.28125 A 1.0001 1.0001 0 0 0 10.875 2.96875 z M 8 8 C 7 8 7 9 7.5 9.5 C 7.833333 9.8333 8.5 10.5 8.5 10.5 L 7.5 11.5 C 7.5 11.5 7 12 7.5 12.5 C 8 13 8.5 12.5 8.5 12.5 L 9.5 11.5 L 10.5 12.5 C 11 13 12 13 12 12 L 12 8 L 8 8 z M 3 11 L 3 13 L 5 13 L 5 11 L 3 11 z M 5 13 L 5 15 L 7 15 L 7 13 L 5 13 z M 7 15 L 7 17 L 9 17 L 9 15 L 7 15 z "
       transform="translate(0,1032.3622)"
       id="rect4184" />
  </g>
</svg>

<?xml version="1.0" encoding="UTF-8" standalone="yes"?>
<svg viewBox="0 0 20 20">
  <path d="M10.9,3C10.3,3,9.9,3.5,10,4.1c0,0.2,0.1,0.5,0.3,0.6l5,5c0.4,0.4,1,0.4,1.4,0c0.4-0.4,0.4-1,0-1.4c0,0,0,0,0,0l-5-5
	C11.5,3,11.2,2.9,10.9,3z M8,8C7,8,7,9,7.5,9.5c0.3,0.3,1,1,1,1l-1,1c0,0-0.5,0.5,0,1s1,0,1,0l1-1l1,1C11,13,12,13,12,12V8H8z M3,11
	v2h2v-2H3z M5,13v2h2v-2H5z M7,15v2h2v-2H7z"/>
</svg>
